X:579
T:Easy Club Reel
R:reel
C:Jim Sutherland
D:Four Men and a Dog: Barking Mad
Z:id:hn-reel-579
M:C|
K:A
~A3c BABd | cee^d eAce | fefg afec | dBcA BdcB |
AEAc BABd | ceef eAce | ~f3g afed |1 cdBc A3E :|2 cdBc A2ag ||
|: f2af dfaf | e2ae ceae | f2af defg | afec BdcB |
AEAc BABd | ceef eAce | ~f3g afed |1 cdBc A2ag :|2 cdBc A3E ||
P:original version
|: AEAc BEBd | cAce eAce | faae- eaga | ceec dcBc |
AEAc BEBd | cAce eAce | faga faec |1 dBGB A2cB :|2 dBGB ABce ||
|: faad- daga | eaac- caga | faad- daga | ceeB- BdcB |
A2cA BcdB | cdec defg | agae (3fga ec |1 dBGB ABce :|2 dBGB A2cB ||

